X:1
T:h
T:Impossible S. 140 Etude 6
T:Franz Liszt (Original Piece) - Antonis_Greek
T:Variation 2
%%score { ( 1 2 ) | ( 3 4 ) }
L:1/8
M:2/4
K:C
V:1 treble nm="Piano" snm="Pno."
V:2 treble 
V:3 bass 
V:4 bass 
V:1
!pp! ([A,Aaa']/[^G,^G^g^g']/[A,Aaa']/[G,Ggg']/){/[_B,_B_b_b']} ([A,Aaa']/[=B,=B=b=b']/[Ccc'c'']/[Ddd'd'']/) | %1
 ([Eee'e'']/[^D^d^d'^d'']/[Eee'e'']/[Ddd'd'']/){/[Fff'f'']} ([Eee'e'']/[=D=d=d'=d'']/[Ccc'c'']/[B,Bbb']/) | %2
 ([A,Aaa']/[^G,^G^g^g']/[A,Aaa']/[G,Ggg']/){/[_B,_B_b_b']} ([A,Aaa']/[=B,=B=b=b']/[Ccc'c'']/[Ddd'd'']/) | %3
 ([Eee'e'']/[^D^d^d'^d'']/[Eee'e'']/[Ddd'd'']/){[Fff'f'']} !wedge![Eee'e'']!wedge![E,Eee'] | %4
[K:treble] z2 (!^![Aaa']2- | [Aaa']!^![^G^g^g'] !^!!tenuto![ee'e'']2 | %6
 !^![ee'e'']!^![dd'd'']!^![cc'c'']!^![Bbb']) | (!^![Bbb']2 !^![Eee']2) | %8
!fff! [EAeae'a'e''a'']/[^G^g^g'^g'']/[EAeae'a'e''a'']/[^G^g^g'g'']/{/[B,Bbb'b'']} ([A,Aaa'a'']/[=G=g=g'=g'']/[Fff'f'']/[Eee'e'']/) | %9
[K:bass] ([Ddd'd'']/[^C^c^c'^c'']/[Ddd'd'']/[Ccc'c'']/){/[_E,_E_e_e'_e'']} ([D,Ddd'd'']/[=E=e=e'=e'']/[Fff'f'']/[Ddd'd'']/) | %10
 ([Ggg'g'']/[^F^f^f'^f'']/[Ggg'g'']/[^F^f^f'f'']/){/[_A,_A_a_a'_a'']} ([G,Ggg'g'']/[=F=f=f'=f'']/[Eee'e'']/[Ccc'c'']/) | %11
 ([Ccc'c'']/[B,Bbb']/[Ccc'c'']/[B,Bbb']/){/[_D,_D_d_d'_d'']} ([C,Ccc'c'']/[=D=d=d'=d'']/[Eee'e'']/[Ccc'c'']/) | %12
 ([Fff'f'']/[Eee'e'']/[Fff'f'']/[Eee'e'']/){/[=Ggg'g'']} ([Fff'f'']/[Ddd'd'']/[Ccc'c'']/[B,Bbb']/) | %13
 ([Eee'e'']/[^D^d^d'^d'']/[Eee'e'']/[Ddd'd'']/){/[Fff'f'']} ([Eee'e'']/[Ccc'c'']/[B,Bbb']/[A,Aaa']/) | %14
 ([B,Bbb']/[^A,^A^a^a']/[B,Bbb']/[^A,^A^a^a']/){/[Cc]} ([^G,B,^GB^gb]/[Fff']/[Eee']/[=G,=G=g]/) | %15
 [=A,Aa]/[^G,^G^g]/[A,Aa]/[G,Gg]/{[B,Bb]} [A,AAa] z | %16
[K:treble] z!8va(! !wedge!!tenuto![=gae'g'a'a'e''a'']2 (!^![ge'g'_b'e''_b'']- | %17
 [ge'g'b'e''b''][af'a'a'f''a''][faf'f'a'f''][dfd'd'f'd''])!8va)! | %18
 z !wedge!!tenuto![d=fd']2 (!^![ege']- | [ege'][dfd'][cec'][Geg]) | %20
 z !^![FBff'b'f'']2 (!^![=GB=gg'b'g'']- | [=GB=gg'b'g''][FAff'a'f''][EAee'a'e'']>[CEcc'e'c'']) | %22
[Q:1/4=120]"_ritard." [A,B,^DBab^d'b'][Q:1/4=119]"^.4"[A,B,DBabd'b'][Q:1/4=117]"^.1"!<(! [^G,=Dc^g=d'c'']/[Q:1/4=115][B,Bbb']/[Q:1/4=112]"^.2"!^!!fermata![Fff'f'']/[Q:1/4=108]"^.7"[Eee'e'']/!<)![Q:1/4=119]"^.9"[Q:1/4=118]"^.5" | %23
!p![Q:1/4=104]"^.4" z[Q:1/4=93]"^.3" !wedge![A,DFAad'f'a'][Q:1/4=78]"^.6"!wedge![A,DFAad'f'a'][Q:1/4=60] z[Q:1/4=99]"^.3"[Q:1/4=86]"^.4" | %24
 z4 | z4 |] %26
V:2
 [F,Fff'][F,Fff'] x2 | [E,^G,E^Ge^ge'^g'][E,G,EGege'g'] x2 | [F,Fff'][F,Fff'] x2 | %3
 [E,^G,E^Ge^ge'^g'][E,G,EGege'g'] x2 |[K:treble] x4 | x4 | x4 | x4 | %8
 [G,A,GAgag'a'][G,A,=GA=ga=g'a'] x2 |[K:bass] [D,F,DFdfd'f'][D,F,DFdfd'f'] x2 | %10
 [F,G,DFGdfgd'f'g'd''][F,G,D=FGd=fgd'=f'g'd''] x2 | [C,E,CEcec'e'][C,E,CEcec'e'] x2 | %12
 [F,B,FBfbf'b'][F,B,FBfbf'b'] x2 | [E,A,EAeae'a'][E,A,EAeae'a'] x2 | %14
 [^D,A,^DA^da^d'a'][D,=A,D=Ad=ad'=a'] [=D,=D=d]2 | [C,E,CEce][D,F,DFdf] [C,E,CEce] x | %16
[K:treble] x!8va(! x3 | x4!8va)! | x4 | x4 | x4 | x4 | x4 | x4 | x4 | x4 |] %26
V:3
 [A,,,A,,]/[^G,,,^G,,]/[A,,,A,,]/[G,,,G,,]/{/[_B,,,,_B,,,_B,,]} ([A,,,,A,,,A,,]/[=B,,,,=B,,,=B,,]/[C,,,C,,C,]/[D,,,D,,D,]/) | %1
 ([B,,,B,,]/[^D,,^D,]/[B,,,B,,]/[D,,D,]/){/[F,,,F,,F,]} ([E,,,E,,E,]/[D,,,=D,,=D,]/[C,,,C,,C,]/[B,,,,B,,,B,,]/) | %2
 ([A,,,A,,]/[^G,,,^G,,]/[A,,,A,,]/[G,,,G,,]/){/[_B,,,,_B,,,_B,,]} ([A,,,,A,,,A,,]/[=B,,,,=B,,,=B,,]/[C,,,C,,C,]/[D,,,D,,D,]/) | %3
 ([B,,,B,,]/[^D,,^D,]/[B,,,B,,]/[D,,D,]/){[F,,F,]} !wedge![E,,E,]!wedge![E,,,E,,] | %4
 ([A,,,A,,]/[^G,,,^G,,]/[A,,,A,,]/[G,,,G,,]/)!<(!{/[_B,,,,_B,,,_B,,]} ([A,,,,A,,,A,,]/[=B,,,,=B,,,=B,,]/[C,,,C,,C,]/[D,,,D,,D,]/)!<)! | %5
 ([E,,E,]/[^D,,^D,]/[E,,E,]/[D,,D,]/)!<(!{/[F,,,F,,F,]} ([E,,,E,,E,]/[D,,,=D,,=D,]/[C,,,C,,C,]/[B,,,,B,,,B,,]/)!<)! | %6
 ([A,,,A,,]/[^G,,,^G,,]/[A,,,A,,]/[G,,,G,,]/)!<(!{/[_B,,,,_B,,,_B,,]} ([A,,,,A,,,A,,]/[=B,,,,=B,,,=B,,]/[C,,,C,,C,]/[D,,,D,,D,]/)!<)! | %7
 ([E,,E,]/[^D,,^D,]/[E,,E,]/[D,,D,]/){/[F,,F,]} !wedge![E,,E,]!wedge![E,,,E,,] | %8
 ([A,,,A,,]/[^G,,,^G,,]/[A,,,A,,]/[G,,,G,,]/){/[_B,,,_B,,]} ([A,,,A,,]/[=G,,,=G,,]/[F,,,F,,]/[E,,,E,,]/) | %9
 ([D,,,D,,]/[^C,,,^C,,]/[D,,,D,,]/[C,,,C,,]/){/[_E,,,_E,,]} ([D,,,D,,]/[=E,,,=E,,]/[F,,,F,,]/[D,,,D,,]/) | %10
 ([G,,,G,,]/[F,,,F,,]/[G,,,G,,]/[F,,,F,,]/){/[A,,,A,,]} ([G,,,G,,]/[F,,,F,,]/[E,,,E,,]/[D,,,D,,]/) | %11
 ([C,,,C,,]/[B,,,,B,,,]/[C,,,C,,]/[B,,,,B,,,]/){/[_D,,,_D,,]} ([C,,,C,,]/[=D,,,=D,,]/[E,,,E,,]/[C,,,C,,]/) | %12
 ([B,,,B,,]/[E,,E,]/[B,,,B,,]/[E,,E,]/){/[=G,,,=G,,=G,]} ([F,,,F,,F,]/[D,,,D,,D,]/[C,,,C,,C,]/[B,,,,B,,,B,,]/) | %13
 ([A,,,A,,]/[^D,,^D,]/[A,,,A,,]/[D,,D,]/){/[F,,,F,,F,]} ([E,,,E,,E,]/[C,,,C,,C,]/[B,,,,B,,,B,,]/[A,,,,A,,,A,,]/) | %14
 ([B,,,B,,]/[^A,,,^A,,]/[B,,,B,,]/[A,,,A,,]/){/[C,,C,]} ([B,,,B,,]/[F,,F,]/[E,,E,]/[^G,,,^G,,]/) | %15
 =A,,/^G,,/A,,/G,,/ !wedge!A,, z | %16
 ([A,,,A,,]/[^G,,,^G,,]/[A,,,A,,]/[G,,,G,,]/){/[_B,,,_B,,]} ([A,,,A,,]/[=G,,,=G,,]/[F,,,F,,]/[E,,,E,,]/) | %17
 ([D,,,D,,]/[^C,,,^C,,]/[D,,,D,,]/[C,,,C,,]/){/[_E,,,_E,,]} ([D,,,D,,]/[=E,,,=E,,]/[F,,,F,,]/[D,,,D,,]/) | %18
 ([G,,,G,,]/[^F,,,^F,,]/[G,,,G,,]/[F,,,F,,]/){/[A,,,A,,]} ([G,,,G,,]/[=F,,,=F,,]/[E,,,E,,]/[D,,,D,,]/) | %19
 ([C,,,C,,]/[B,,,,B,,,]/[C,,,C,,]/[B,,,,B,,,]/){[_D,,,_D,,]} ([C,,,C,,]/[=D,,,=D,,]/[E,,,E,,]/[C,,,C,,]/) | %20
!>(! ([F,,F,]/[E,,E,]/[F,,F,]/[E,,E,]/)!>)!"_cresc."{[=G,,,=G,,=G,]} ([F,,,F,,F,]/[D,,,D,,D,]/[C,,,C,,C,]/[B,,,,B,,,B,,]/) | %21
 [E,,E,]/[^D,,^D,]/[E,,E,]/[D,,D,]/{[F,,,F,,F,]} [E,,,E,,E,]/[C,,,C,,C,]/[B,,,,B,,,B,,]/[A,,,,A,,,A,,]/ | %22
 ([B,,,B,,]/[^A,,,^A,,]/[B,,,B,,]/[A,,,A,,]/) [C,,C,]/[B,,,B,,]/!fermata![F,,F,]/[E,,E,]/ | %23
 [A,,,=A,,]/[^G,,,^G,,]/[A,,,A,,]/[G,,,G,,]/!ped!{[B,,,B,,]} [A,,,A,,] z | z4 | z4!ped-up! |] %26
V:4
 [F,,,F,,][F,,,F,,] x2 | [E,,,B,,,E,,B,,][E,,,B,,,E,,B,,] x2 | [F,,,F,,][F,,,F,,] x2 | %3
 [E,,,E,,][E,,,E,,] x2 | [F,,,F,,][F,,,F,,] x2 | [E,,,B,,,E,,B,,][E,,,B,,,E,,B,,] x2 | %6
 [F,,,F,,][F,,,F,,] x2 | [E,,,^G,,,E,,^G,,][E,,,G,,,E,,G,,] x2 | [^C,,,^C,,][C,,,C,,] x2 | %9
 [A,,,A,,][A,,,A,,] x2 | [B,,,,B,,,][B,,,,B,,,] x2 | [G,,,G,,][G,,,G,,] x2 | %12
 [D,,,^G,,,D,,^G,,][D,,,G,,,D,,G,,] x2 | [C,,,C,,][C,,,C,,] x2 | %14
 [^F,,,^F,,][=F,,,=F,,] [E,,,E,,]2 |xD,, !wedge!A,,, x | [^C,,,^C,,][C,,,C,,] x2 | %17
 [A,,,A,,][A,,,A,,] x2 | [B,,,,B,,,][B,,,,B,,,] x2 | [G,,,G,,][G,,,G,,] x2 | %20
 [D,,,^G,,,B,,,D,,^G,,B,,] x3 | [C,,,A,,,C,,A,,] x3 | [^F,,,^F,,][=F,,,=F,,] [E,,,E,,]2 | %23
 A,,,[D,,,D,,] [A,,,,A,,,] x | x4 | x4 |] %26

